common/icons/svgs/lifts.svg

<svg xmlns="http://www.w3.org/2000/svg" width="24" height="24" viewBox="0 0 24 24">
  <g fill="none" fill-rule="evenodd" transform="translate(-456 -192)">
    <rect width="504" height="450" fill="#FFF"/>
    <g transform="translate(456 192)">
      <rect width="24" height="24"/>
      <g fill="#000" fill-rule="nonzero" transform="translate(2)">
        <path d="M15,0.45 L4.6,0.45 C2.390861,0.45 0.6,2.240861 0.6,4.45 L0.6,22.75 C0.6,23.3022847 1.04771525,23.75 1.6,23.75 C2.15228475,23.75 2.6,23.3022847 2.6,22.75 L2.6,4.45 C2.6,3.3454305 3.4954305,2.45 4.6,2.45 L15,2.45 C16.1045695,2.45 17,3.3454305 17,4.45 L17,22.75 C17,23.3022847 17.4477153,23.75 18,23.75 C18.5522847,23.75 19,23.3022847 19,22.75 L19,4.45 C19,2.240861 17.209139,0.45 15,0.45 Z"/>
        <path d="M12.42,8.2 L7.17,8.2 C5.82794806,8.2 4.74,9.28794806 4.74,10.63 L4.74,15.1 C4.74,15.6522847 5.18771525,16.1 5.74,16.1 C6.29228475,16.1 6.74,15.6522847 6.74,15.1 L6.74,10.63 C6.74,10.3925176 6.93251756,10.2 7.17,10.2 L12.42,10.2 C12.6574824,10.2 12.85,10.3925176 12.85,10.63 L12.85,15.1 C12.85,15.6522847 13.2977153,16.1 13.85,16.1 C14.4022847,16.1 14.85,15.6522847 14.85,15.1 L14.85,10.63 C14.85,9.28794806 13.7620519,8.2 12.42,8.2 L12.42,8.2 Z"/>
        <circle cx="9.8" cy="5.32" r="2.08"/>
        <path d="M8.42,14.35 C7.86771525,14.35 7.42,14.7977153 7.42,15.35 L7.42,22.75 C7.42,23.3022847 7.86771525,23.75 8.42,23.75 C8.97228475,23.75 9.42,23.3022847 9.42,22.75 L9.42,15.35 C9.42,14.7977153 8.97228475,14.35 8.42,14.35 Z M11.42,14.35 C10.8677153,14.35 10.42,14.7977153 10.42,15.35 L10.42,22.75 C10.42,23.3022847 10.8677153,23.75 11.42,23.75 C11.9722847,23.75 12.42,23.3022847 12.42,22.75 L12.42,15.35 C12.42,14.7977153 11.9722847,14.35 11.42,14.35 Z"/>
      </g>
    </g>
  </g>
</svg>

<svg xmlns="http://www.w3.org/2000/svg" viewbox="0 0 24 24"><g class="icon__shape" fill-rule="nonzero" transform="translate(2)"><path d="M15 .45H4.6a4 4 0 0 0-4 4v18.3a1 1 0 0 0 2 0V4.45a2 2 0 0 1 2-2H15a2 2 0 0 1 2 2v18.3a1 1 0 0 0 2 0V4.45a4 4 0 0 0-4-4z"/><path d="M12.42 8.2H7.17a2.43 2.43 0 0 0-2.43 2.43v4.47a1 1 0 0 0 2 0v-4.47a.43.43 0 0 1 .43-.43h5.25a.43.43 0 0 1 .43.43v4.47a1 1 0 0 0 2 0v-4.47a2.43 2.43 0 0 0-2.43-2.43z"/><circle cx="9.8" cy="5.32" r="2.08"/><path d="M8.42 14.35a1 1 0 0 0-1 1v7.4a1 1 0 0 0 2 0v-7.4a1 1 0 0 0-1-1zm3 0a1 1 0 0 0-1 1v7.4a1 1 0 0 0 2 0v-7.4a1 1 0 0 0-1-1z"/></g></svg>
